X:911
T:Anglais efter Per Nilsson Dahlberg
T:(SvL Skåne nr. 237)
S:efter Per Nilsson Dahlberg
S:Svenska Låtar Skåne nr 237
B:Svenska Låtar Skåne
R:Anglais
Z:Patrik Månsson, 2009-01-03
O:Nymö, Skåne
M:2/4
L:1/16
K:Bb
|: d2(dc) BFDF | B,DFB d2fd | e2ed cdcB | (Ac)fA B4 :|
|: gf=ef bfdf | _edcd fdBd | cBcd ecAc | (FG)AF B4 :|
(:musicend:)



(:music:)
